X:88
T:The Wet Blanket
R:hornpipe
C: 1999, 2010 L.E. McCullough  
M:4/4
L:1/8
K:Ador
z6 EG|:AGAc dedc|BGFG dgfg|eAGA egfg|edBG A2EG|
AGAc dedc|BGFG dgfg|aede gdBd|1 GABG A2EG:|2 GABG A2cd|]
egfg aede|aeba gdBd|gfga gdga|(3bag ab gdeg|
~a3b c'baf|gfga gdBG|AGAc dedc|1 (3BAG dG A2cd:|2 (3BAG EG A2EG|]

